X: 453
T: Bulan Özünü
C: Refik Fersan
O: Turkey
F: http://compmusic.upf.edu/node/140
N: rast--sarki--cengiharbi--bulan_ozunu--refik_fersan
N: makam= rast
N: form= sarki
N: usul= cengiharbi = 10/8
M: 10/8
L: 1/16
K: C _1/4B ^f  
Q: 1/4=208
%%MIDI tuningsystem comma53
D4 G4 A2G2 A2B4d2  | d4 B4 c4 B2A4e2  | \
w:  ARANAĞME  |   | 
e4 d4 e4 d2c4e2  | d4 c4 d4 c2B4d2  | 
w:   |   | 
c4 B4 c4 B2A4d2  | d4 B4 c2B2 A2G2 F2E2  | \
w:   |   | 
D4 G4 A2G2 A2B4d2  | 
w:  ARANAĞME  | 
d4 B4 c4 B2A4e2  | e4 d4 e4 d2c4e2  | \
w:   |   | 
d4 c4 d4 c2B4d2  | c4 B4 c4 B2A4d2  | 
w:   |   | 
d4 B4 c2B2 A2G6  | D4 G4 A2G2 A2B2 c2d2  | \
w:   |  Bu lan  ö *  zü nü   | 
B4 G4 A4 B2G4z2  | D4 G4 A2G2 A2B2 c2d2  | 
w:  gö ren  yü zü nü    |  Bir  yü zü  *  da hî   | 
e2c2 d2c2 B3A G2d6  | d16-d4  | e4 d4 e4 d2c4e2  | \
w:  gör *  mek  *  di *  le mez    |   |  Vus lat ta  o lan   | 
d4 c4 d4 c2B4d2  | 
w:  hay ret te  ka lan    | 
c4 B4 c4 B2A4d2  | d4 B4 c2B2 A2G4z2  | \
w:  Hem  ben zi  so lan   |  ağ lar  gü *  le mez    | 
e4 d4 e4 d2c4e2  | d4 c4 d4 c2B4d2  | 
w:  Vus lat ta  o lan   |  hay ret te  ka lan    | 
c4 B4 c4 B2A4d2  | d4 B4 c2B2 A2G4z2  | \
w:  Hem  ben zi  so lan   |  ağ lar  gü *  le mez    | 
d2e2 e14d2  | g2e2 e8 d2d2 e2d2  | 
w:  Yâr  *  yâr   |  yâr  *  yâr   | 
d16-d4  | d16-d4  | e4 e2d2 d2e2 d2d4c2  | \
w:  yâr    |   |  Ben  â *  şı *  kı na   | 
d2e2 e2d2 d2e2 d2d4c2  | 
w:  gös *  ter  *  yü *  zü nü    | 
g2e2 e2d2 d2e2 d2d4B2  | c2d2 d2B2 c4 d2B4z2  | \
w:  Bir  *  kez  *  ö *  pe yim   |  gü ler *  *  yü zü nü    | 
e4 e2d2 d2e2 d2d4c2  | 
w:  Ben  â *  şı *  kı na   | 
d2e2 e2d2 d2e2 d2d4c2  | g2e2 e2d2 d2e2 d2d4B2  | \
w:  gös *  ter  *  yü *  zü nü    |  Bir  *  kez  *  ö *  pe yim   | 
c2d2 d2B2 c4 d2B4z2  | 
w:  gü ler *  *  yü zü nü    | 
d4 d16  | ^c2d2 =c8-=c2c2 d2B2  | B16-B4  | \
w:  Yâr  yâr   |  yâr   |  yâr    | 
G4 d4 d4 ^c2d4=B2  | =B2^c2 d2c2 d2c2 B2c4B2  | 
w:  Â şık  o la gör   |  Mec *  nûn  *  o *  la gör    | 
g2=f2 f2e2 d2c2 B2c4B2  | B2d2 d2B2 c4 d2B4z2  | \
w:  Sâ *  dık  *  o *  la gör   |  mef *  tûn  *  o la gör    | 
G4 d4 d4 ^c2d4=B2  | 
w:  Â şık  o la gör   | 
=B2^c2 d2c2 d2c2 B2c4B2  | g2=f2 f2e2 d2c2 B2c4B2  | \
w:  Mec *  nûn  *  o *  la gör    |  Sâ *  dık  *  o *  la gör   | 
B2d2 d2B2 c4 d2B4z2  | 
w:  mef *  tûn  *  o la gör    | 
e4 d4 e4 d2c4e2  | d4 c4 d4 c2B4d2  | \
w:  Her  sem  ü  se  her   |  od la ra  ya nan    | 
c4 B4 c4 B2A4d2  | d4 B4 c2B2 A2G4z2  | 
w:  Ak lın  di re mez   |  ken din  bi *  le mez    | 
e4 d4 e4 d2c4e2  | d4 c4 d4 c2B4d2  | \
w:  Her  sem  ü  se  her   |  od la ra  ya nan    | 
c4 B4 c4 B2A4d2  | d4 B4 c2B2 A2G4z2  | 
w:  Ak lın  di re mez   |  ken din  bi *  le mez    | 
|


